Newaita-dark/apps/16/wps-office-wpsmain.svg

<svg height="16" viewBox="0 0 16 16" width="16" xmlns="http://www.w3.org/2000/svg" xmlns:xlink="http://www.w3.org/1999/xlink"><linearGradient id="a" gradientUnits="userSpaceOnUse" x1="7.938261" x2="7.938261" y1="14.0169675" y2="14.67848950002"><stop offset="0" stop-opacity=".27451"/><stop offset="1" stop-opacity="0"/></linearGradient><linearGradient id="b"><stop offset="0" stop-opacity=".313726"/><stop offset=".222222" stop-opacity=".27451"/><stop offset="1" stop-opacity="0"/></linearGradient><radialGradient id="c" cx="450.908936" cy="189.579361" gradientTransform="matrix(.00000009 -.0390662 -.0703192 -.00000005 24.411522 31.797666)" gradientUnits="userSpaceOnUse" r="21.166656" xlink:href="#b"/><radialGradient id="d" cx="450.908936" cy="189.579361" gradientTransform="matrix(-.00000009 .0390662 .0703192 .00000005 -8.865765 -3.763739)" gradientUnits="userSpaceOnUse" r="21.166656" xlink:href="#b"/><radialGradient id="e" cx="450.908936" cy="189.579361" gradientTransform="matrix(-.00000009 -.0390662 .0703192 -.00000005 -8.865765 31.797668)" gradientUnits="userSpaceOnUse" r="21.166656" xlink:href="#b"/><radialGradient id="f" cx="450.908936" cy="189.579361" gradientTransform="matrix(.00000009 .0390662 -.0703192 .00000005 24.411522 -3.763739)" gradientUnits="userSpaceOnUse" r="21.166656" xlink:href="#b"/><linearGradient id="g" gradientUnits="userSpaceOnUse" x1="7.7728788" x2="7.7728788" y1="14.01696600048" y2="1.4480552201"><stop offset="0" stop-color="#eee"/><stop offset="1" stop-color="#f5f5f5"/></linearGradient><linearGradient id="h" gradientUnits="userSpaceOnUse" x1="142.907951" x2="251.387123" y1="260.476174" y2="72.584744"><stop offset="0" stop-color="#9e9e9e"/><stop offset="1" stop-color="#bdbdbd"/></linearGradient><linearGradient id="i"><stop offset="0" stop-color="#42a5f5"/><stop offset="1" stop-color="#64b5f6"/></linearGradient><linearGradient id="j" gradientTransform="matrix(.031253 0 0 .0394775 0 3.780583)" gradientUnits="userSpaceOnUse" x1="243.416656" x2="243.416656" xlink:href="#i" y1="259.296906" y2="-59.085064"/><linearGradient id="k" gradientUnits="userSpaceOnUse" x1="7.7728788" x2="7.7728788" xlink:href="#i" y1="14.01696600048" y2="1.4480552201"/><path d="m4.300781 14.015625h6.945313v.664063h-6.945313zm0 0" fill="url(#a)"/><path d="m11.246094 14.015625h1.324218v-.660156h-1.324218zm0 0" fill="url(#c)"/><path d="m4.300781 14.015625h-1.324219v.664063h1.324219zm0 0" fill="url(#d)"/><path d="m4.300781 14.015625h-1.324219v-.660156h1.324219zm0 0" fill="url(#e)"/><path d="m11.246094 14.015625h1.324218v.664063h-1.324218zm0 0" fill="url(#f)"/><path d="m3.636719 1.449219c-.363281 0-.660157.292969-.660157.660156v11.246094c0 .367187.296876.660156.660157.660156h8.269531c.367188 0 .664062-.292969.664062-.660156v-8.929688l-2.976562-2.976562zm6.617187 0 2.316406 2.3125v-1.652344c0-.367187-.296874-.660156-.664062-.660156zm0 0" fill="url(#g)"/><g fill="url(#h)" stroke="#212121" stroke-linecap="round" stroke-linejoin="round" stroke-width="3"><path d="m122.651161 91.282953 137.635386.085745c5.767077.010176 10.520788 4.775266 10.510612 10.542342.035572 5.937813-4.667023 10.583282-10.604836 10.618854l-137.527143-.023251c-5.937813.035573-10.583282-4.667022-10.618854-10.604836.010176-5.767076 4.775265-10.520787 10.604835-10.618854zm0 0" transform="matrix(.0270659 -.0156265 .0156265 .0270659 0 6.719392)"/><path d="m122.679198 133.730333 137.589638-.084991c5.767076.010176 10.520787 4.775265 10.618854 10.604835-.07267 5.875319-4.83776 10.629031-10.604836 10.618855l-137.635386-.085746c-5.82957.098067-10.583281-4.667022-10.510611-10.542341-.098067-5.829571 4.667022-10.583282 10.542341-10.510612zm0 0" transform="matrix(.0270659 -.0156265 .0156265 .0270659 0 6.719392)"/><path d="m122.661487 176.006976 137.527143.023252c5.937813-.035573 10.691524 4.729516 10.618854 10.604835-.010176 5.767077-4.775265 10.520788-10.542342 10.510612l-137.589637.084991c-5.875319-.07267-10.62903-4.837759-10.618854-10.604835.07267-5.87532 4.729517-10.691525 10.604836-10.618855zm0 0" transform="matrix(.0270659 -.0156265 .0156265 .0270659 0 6.719392)"/><path d="m122.59354 219.120559 137.635385.085745c5.829571-.098067 10.583282 4.667023 10.510612 10.542342.098067 5.82957-4.667023 10.583281-10.542342 10.510611l-137.589637.084992c-5.767076-.010176-10.520787-4.775266-10.618854-10.604836.07267-5.875319 4.837759-10.62903 10.604836-10.618854zm0 0" transform="matrix(.0270659 -.0156265 .0156265 .0270659 0 6.719392)"/></g><path d="m2.976562 8.394531h9.59375v3.140625h-9.59375zm0 0" fill="url(#j)"/><path d="m10.253906 1.449219 2.316406 2.3125v-1.652344c0-.367187-.296874-.660156-.664062-.660156zm0 0" fill="url(#k)"/><path d="m3.636719 1.449219c-.363281 0-.660157.292969-.660157.660156v.164063c0-.363282.296876-.660157.660157-.660157h5.957031l2.976562 2.976563v-.164063l-2.976562-2.976562zm6.617187 0 .164063.164062h1.488281c.367188 0 .664062.296875.664062.660157v-.164063c0-.367187-.296874-.660156-.664062-.660156zm0 0" fill="#fff" fill-opacity=".392157"/><path d="m10.253906 1.449219 2.316406 2.3125v-.242188l-2.070312-2.070312zm-7.277344 11.660156v.246094c0 .367187.296876.660156.660157.660156h8.269531c.367188 0 .664062-.292969.664062-.660156v-.246094c0 .367187-.296874.664063-.664062.664063h-8.269531c-.363281 0-.660157-.296876-.660157-.664063zm0 0" fill-opacity=".235294"/><path d="m2.976562 11.535156v.25h9.59375v-.25zm0 0" fill-opacity=".235294"/><path d="m2.976562 8.394531v.246094h9.59375v-.246094zm0 0" fill="#fff" fill-opacity=".392157"/><path d="m2.976562 8.347656c-.027343 0-.046874.019532-.046874.046875v3.140625c0 .027344.019531.046875.046874.046875h9.59375c.023438 0 .046876-.019531.046876-.046875v-3.140625c0-.027343-.023438-.046875-.046876-.046875zm.046876.09375h9.5v3.046875h-9.5zm0 0" fill="#212121"/><path d="m3.636719 1.402344c-.390625 0-.707031.316406-.707031.707031v11.246094c0 .390625.316406.707031.707031.707031h8.269531c.394531 0 .710938-.316406.710938-.707031v-8.929688c0-.011719-.007813-.023437-.015626-.035156l-2.976562-2.976563c-.007812-.007812-.019531-.011718-.03125-.011718zm6.617187 0c-.019531 0-.035156.011718-.042968.027344-.007813.019531-.003907.039062.007812.050781l2.316406 2.316406c.015625.011719.035156.015625.050782.011719.019531-.007813.03125-.027344.03125-.046875v-1.652344c0-.390625-.316407-.707031-.710938-.707031zm-6.617187.09375h5.9375l2.949219 2.949218v8.910157c0 .339843-.273438.613281-.617188.613281h-8.269531c-.339844 0-.613281-.273438-.613281-.613281v-11.246094c0-.339844.273437-.613281.613281-.613281zm6.730469 0h1.539062c.34375 0 .617188.273437.617188.613281v1.539063zm0 0" fill="#212121"/></svg>

<?xml version="1.0" encoding="UTF-8"?>
<svg xmlns="http://www.w3.org/2000/svg" xmlns:xlink="http://www.w3.org/1999/xlink" width="16px" height="16px" viewBox="0 0 16 16" version="1.1">
<defs>
<linearGradient id="linear0" gradientUnits="userSpaceOnUse" x1="254" y1="233.5" x2="254" y2="254.666672" gradientTransform="matrix(0.031253,0,0,0.031253,-0.00000125012,6.719392)">
<stop offset="0" style="stop-color:rgb(0%,0%,0%);stop-opacity:0.27451;"/>
<stop offset="1" style="stop-color:rgb(0%,0%,0%);stop-opacity:0;"/>
</linearGradient>
<radialGradient id="radial0" gradientUnits="userSpaceOnUse" cx="450.908936" cy="189.579361" fx="450.908936" fy="189.579361" r="21.166656" gradientTransform="matrix(0.0000000870852,-0.0390662,-0.0703192,-0.0000000507693,24.411522,31.797666)">
<stop offset="0" style="stop-color:rgb(0%,0%,0%);stop-opacity:0.313726;"/>
<stop offset="0.222222" style="stop-color:rgb(0%,0%,0%);stop-opacity:0.27451;"/>
<stop offset="1" style="stop-color:rgb(0%,0%,0%);stop-opacity:0;"/>
</radialGradient>
<radialGradient id="radial1" gradientUnits="userSpaceOnUse" cx="450.908936" cy="189.579361" fx="450.908936" fy="189.579361" r="21.166656" gradientTransform="matrix(-0.0000000870852,0.0390662,0.0703192,0.0000000507693,-8.865765,-3.763739)">
<stop offset="0" style="stop-color:rgb(0%,0%,0%);stop-opacity:0.313726;"/>
<stop offset="0.222222" style="stop-color:rgb(0%,0%,0%);stop-opacity:0.27451;"/>
<stop offset="1" style="stop-color:rgb(0%,0%,0%);stop-opacity:0;"/>
</radialGradient>
<radialGradient id="radial2" gradientUnits="userSpaceOnUse" cx="450.908936" cy="189.579361" fx="450.908936" fy="189.579361" r="21.166656" gradientTransform="matrix(-0.0000000870852,-0.0390662,0.0703192,-0.0000000507693,-8.865765,31.797668)">
<stop offset="0" style="stop-color:rgb(0%,0%,0%);stop-opacity:0.313726;"/>
<stop offset="0.222222" style="stop-color:rgb(0%,0%,0%);stop-opacity:0.27451;"/>
<stop offset="1" style="stop-color:rgb(0%,0%,0%);stop-opacity:0;"/>
</radialGradient>
<radialGradient id="radial3" gradientUnits="userSpaceOnUse" cx="450.908936" cy="189.579361" fx="450.908936" fy="189.579361" r="21.166656" gradientTransform="matrix(0.0000000870852,0.0390662,-0.0703192,0.0000000507693,24.411522,-3.763739)">
<stop offset="0" style="stop-color:rgb(0%,0%,0%);stop-opacity:0.313726;"/>
<stop offset="0.222222" style="stop-color:rgb(0%,0%,0%);stop-opacity:0.27451;"/>
<stop offset="1" style="stop-color:rgb(0%,0%,0%);stop-opacity:0;"/>
</radialGradient>
<linearGradient id="linear1" gradientUnits="userSpaceOnUse" x1="940" y1="1695.118164" x2="940" y2="175.118118" gradientTransform="matrix(0.00826902,0,0,0.00826902,0,0)">
<stop offset="0" style="stop-color:rgb(93.333334%,93.333334%,93.333334%);stop-opacity:1;"/>
<stop offset="1" style="stop-color:rgb(96.078432%,96.078432%,96.078432%);stop-opacity:1;"/>
</linearGradient>
<linearGradient id="linear2" gradientUnits="userSpaceOnUse" x1="200.174942" y1="142.538422" x2="308.654114" y2="-45.353008" gradientTransform="matrix(1,0.000000000000000056,-0.000000000000000056,1,-57.266991,117.937752)">
<stop offset="0" style="stop-color:rgb(61.960787%,61.960787%,61.960787%);stop-opacity:1;"/>
<stop offset="1" style="stop-color:rgb(74.117649%,74.117649%,74.117649%);stop-opacity:1;"/>
</linearGradient>
<linearGradient id="linear3" gradientUnits="userSpaceOnUse" x1="200.174942" y1="142.538422" x2="308.654114" y2="-45.353008" gradientTransform="matrix(1,0.000000000000000056,-0.000000000000000056,1,-57.266991,117.937752)">
<stop offset="0" style="stop-color:rgb(61.960787%,61.960787%,61.960787%);stop-opacity:1;"/>
<stop offset="1" style="stop-color:rgb(74.117649%,74.117649%,74.117649%);stop-opacity:1;"/>
</linearGradient>
<linearGradient id="linear4" gradientUnits="userSpaceOnUse" x1="200.174942" y1="142.538422" x2="308.654114" y2="-45.353008" gradientTransform="matrix(1,0.000000000000000056,-0.000000000000000056,1,-57.266991,117.937752)">
<stop offset="0" style="stop-color:rgb(61.960787%,61.960787%,61.960787%);stop-opacity:1;"/>
<stop offset="1" style="stop-color:rgb(74.117649%,74.117649%,74.117649%);stop-opacity:1;"/>
</linearGradient>
<linearGradient id="linear5" gradientUnits="userSpaceOnUse" x1="200.174942" y1="142.538422" x2="308.654114" y2="-45.353008" gradientTransform="matrix(1,0.000000000000000056,-0.000000000000000056,1,-57.266991,117.937752)">
<stop offset="0" style="stop-color:rgb(61.960787%,61.960787%,61.960787%);stop-opacity:1;"/>
<stop offset="1" style="stop-color:rgb(74.117649%,74.117649%,74.117649%);stop-opacity:1;"/>
</linearGradient>
<linearGradient id="linear6" gradientUnits="userSpaceOnUse" x1="243.416656" y1="259.296906" x2="243.416656" y2="-59.085064" gradientTransform="matrix(0.031253,0,0,0.0394775,0.000000317922,3.780583)">
<stop offset="0" style="stop-color:rgb(25.882354%,64.705884%,96.078432%);stop-opacity:1;"/>
<stop offset="1" style="stop-color:rgb(39.215687%,70.980394%,96.470588%);stop-opacity:1;"/>
</linearGradient>
<linearGradient id="linear7" gradientUnits="userSpaceOnUse" x1="940" y1="1695.118164" x2="940" y2="175.118118" gradientTransform="matrix(0.00826902,0,0,0.00826902,0,0)">
<stop offset="0" style="stop-color:rgb(25.882354%,64.705884%,96.078432%);stop-opacity:1;"/>
<stop offset="1" style="stop-color:rgb(39.215687%,70.980394%,96.470588%);stop-opacity:1;"/>
</linearGradient>
</defs>
<g id="surface1">
<path style=" stroke:none;fill-rule:nonzero;fill:url(#linear0);" d="M 4.300781 14.015625 L 11.246094 14.015625 L 11.246094 14.679688 L 4.300781 14.679688 Z M 4.300781 14.015625 "/>
<path style=" stroke:none;fill-rule:nonzero;fill:url(#radial0);" d="M 11.246094 14.015625 L 12.570312 14.015625 L 12.570312 13.355469 L 11.246094 13.355469 Z M 11.246094 14.015625 "/>
<path style=" stroke:none;fill-rule:nonzero;fill:url(#radial1);" d="M 4.300781 14.015625 L 2.976562 14.015625 L 2.976562 14.679688 L 4.300781 14.679688 Z M 4.300781 14.015625 "/>
<path style=" stroke:none;fill-rule:nonzero;fill:url(#radial2);" d="M 4.300781 14.015625 L 2.976562 14.015625 L 2.976562 13.355469 L 4.300781 13.355469 Z M 4.300781 14.015625 "/>
<path style=" stroke:none;fill-rule:nonzero;fill:url(#radial3);" d="M 11.246094 14.015625 L 12.570312 14.015625 L 12.570312 14.679688 L 11.246094 14.679688 Z M 11.246094 14.015625 "/>
<path style=" stroke:none;fill-rule:nonzero;fill:url(#linear1);" d="M 3.636719 1.449219 C 3.273438 1.449219 2.976562 1.742188 2.976562 2.109375 L 2.976562 13.355469 C 2.976562 13.722656 3.273438 14.015625 3.636719 14.015625 L 11.90625 14.015625 C 12.273438 14.015625 12.570312 13.722656 12.570312 13.355469 L 12.570312 4.425781 L 9.59375 1.449219 Z M 10.253906 1.449219 L 12.570312 3.761719 L 12.570312 2.109375 C 12.570312 1.742188 12.273438 1.449219 11.90625 1.449219 Z M 10.253906 1.449219 "/>
<path style="fill-rule:nonzero;fill:url(#linear2);stroke-width:3;stroke-linecap:round;stroke-linejoin:round;stroke:rgb(12.941177%,12.941177%,12.941177%);stroke-opacity:1;stroke-miterlimit:4;" d="M 122.651161 91.282953 L 260.286547 91.368698 C 266.053624 91.378874 270.807335 96.143964 270.797159 101.91104 C 270.832731 107.848853 266.130136 112.494322 260.192323 112.529894 L 122.66518 112.506643 C 116.727367 112.542216 112.081898 107.839621 112.046326 101.901807 C 112.056502 96.134731 116.821591 91.38102 122.651161 91.282953 Z M 122.651161 91.282953 " transform="matrix(0.0270659,-0.0156265,0.0156265,0.0270659,0,6.719392)"/>
<path style="fill-rule:nonzero;fill:url(#linear3);stroke-width:3;stroke-linecap:round;stroke-linejoin:round;stroke:rgb(12.941177%,12.941177%,12.941177%);stroke-opacity:1;stroke-miterlimit:4;" d="M 122.679198 133.730333 L 260.268836 133.645342 C 266.035912 133.655518 270.789623 138.420607 270.88769 144.250177 C 270.81502 150.125496 266.04993 154.879208 260.282854 154.869032 L 122.647468 154.783286 C 116.817898 154.881353 112.064187 150.116264 112.136857 144.240945 C 112.03879 138.411374 116.803879 133.657663 122.679198 133.730333 Z M 122.679198 133.730333 " transform="matrix(0.0270659,-0.0156265,0.0156265,0.0270659,0,6.719392)"/>
<path style="fill-rule:nonzero;fill:url(#linear4);stroke-width:3;stroke-linecap:round;stroke-linejoin:round;stroke:rgb(12.941177%,12.941177%,12.941177%);stroke-opacity:1;stroke-miterlimit:4;" d="M 122.661487 176.006976 L 260.18863 176.030228 C 266.126443 175.994655 270.880154 180.759744 270.807484 186.635063 C 270.797308 192.40214 266.032219 197.155851 260.265142 197.145675 L 122.675505 197.230666 C 116.800186 197.157996 112.046475 192.392907 112.056651 186.625831 C 112.129321 180.750511 116.786168 175.934306 122.661487 176.006976 Z M 122.661487 176.006976 " transform="matrix(0.0270659,-0.0156265,0.0156265,0.0270659,0,6.719392)"/>
<path style="fill-rule:nonzero;fill:url(#linear5);stroke-width:3;stroke-linecap:round;stroke-linejoin:round;stroke:rgb(12.941177%,12.941177%,12.941177%);stroke-opacity:1;stroke-miterlimit:4;" d="M 122.59354 219.120559 L 260.228925 219.206304 C 266.058496 219.108237 270.812207 223.873327 270.739537 229.748646 C 270.837604 235.578216 266.072514 240.331927 260.197195 240.259257 L 122.607558 240.344249 C 116.840482 240.334073 112.086771 235.568983 111.988704 229.739413 C 112.061374 223.864094 116.826463 219.110383 122.59354 219.120559 Z M 122.59354 219.120559 " transform="matrix(0.0270659,-0.0156265,0.0156265,0.0270659,0,6.719392)"/>
<path style=" stroke:none;fill-rule:nonzero;fill:url(#linear6);" d="M 2.976562 8.394531 L 12.570312 8.394531 L 12.570312 11.535156 L 2.976562 11.535156 Z M 2.976562 8.394531 "/>
<path style=" stroke:none;fill-rule:nonzero;fill:url(#linear7);" d="M 10.253906 1.449219 L 12.570312 3.761719 L 12.570312 2.109375 C 12.570312 1.742188 12.273438 1.449219 11.90625 1.449219 Z M 10.253906 1.449219 "/>
<path style=" stroke:none;fill-rule:nonzero;fill:rgb(100%,100%,100%);fill-opacity:0.392157;" d="M 3.636719 1.449219 C 3.273438 1.449219 2.976562 1.742188 2.976562 2.109375 L 2.976562 2.273438 C 2.976562 1.910156 3.273438 1.613281 3.636719 1.613281 L 9.59375 1.613281 L 12.570312 4.589844 L 12.570312 4.425781 L 9.59375 1.449219 Z M 10.253906 1.449219 L 10.417969 1.613281 L 11.90625 1.613281 C 12.273438 1.613281 12.570312 1.910156 12.570312 2.273438 L 12.570312 2.109375 C 12.570312 1.742188 12.273438 1.449219 11.90625 1.449219 Z M 10.253906 1.449219 "/>
<path style=" stroke:none;fill-rule:nonzero;fill:rgb(0%,0%,0%);fill-opacity:0.235294;" d="M 10.253906 1.449219 L 12.570312 3.761719 L 12.570312 3.519531 L 10.5 1.449219 Z M 2.976562 13.109375 L 2.976562 13.355469 C 2.976562 13.722656 3.273438 14.015625 3.636719 14.015625 L 11.90625 14.015625 C 12.273438 14.015625 12.570312 13.722656 12.570312 13.355469 L 12.570312 13.109375 C 12.570312 13.476562 12.273438 13.773438 11.90625 13.773438 L 3.636719 13.773438 C 3.273438 13.773438 2.976562 13.476562 2.976562 13.109375 Z M 2.976562 13.109375 "/>
<path style=" stroke:none;fill-rule:nonzero;fill:rgb(0%,0%,0%);fill-opacity:0.235294;" d="M 2.976562 11.535156 L 2.976562 11.785156 L 12.570312 11.785156 L 12.570312 11.535156 Z M 2.976562 11.535156 "/>
<path style=" stroke:none;fill-rule:nonzero;fill:rgb(100%,100%,100%);fill-opacity:0.392157;" d="M 2.976562 8.394531 L 2.976562 8.640625 L 12.570312 8.640625 L 12.570312 8.394531 Z M 2.976562 8.394531 "/>
<path style=" stroke:none;fill-rule:nonzero;fill:rgb(12.941177%,12.941177%,12.941177%);fill-opacity:1;" d="M 2.976562 8.347656 C 2.949219 8.347656 2.929688 8.367188 2.929688 8.394531 L 2.929688 11.535156 C 2.929688 11.5625 2.949219 11.582031 2.976562 11.582031 L 12.570312 11.582031 C 12.59375 11.582031 12.617188 11.5625 12.617188 11.535156 L 12.617188 8.394531 C 12.617188 8.367188 12.59375 8.347656 12.570312 8.347656 Z M 3.023438 8.441406 L 12.523438 8.441406 L 12.523438 11.488281 L 3.023438 11.488281 Z M 3.023438 8.441406 "/>
<path style=" stroke:none;fill-rule:nonzero;fill:rgb(12.941177%,12.941177%,12.941177%);fill-opacity:1;" d="M 3.636719 1.402344 C 3.246094 1.402344 2.929688 1.71875 2.929688 2.109375 L 2.929688 13.355469 C 2.929688 13.746094 3.246094 14.0625 3.636719 14.0625 L 11.90625 14.0625 C 12.300781 14.0625 12.617188 13.746094 12.617188 13.355469 L 12.617188 4.425781 C 12.617188 4.414062 12.609375 4.402344 12.601562 4.390625 L 9.625 1.414062 C 9.617188 1.40625 9.605469 1.402344 9.59375 1.402344 Z M 10.253906 1.402344 C 10.234375 1.402344 10.21875 1.414062 10.210938 1.429688 C 10.203125 1.449219 10.207031 1.46875 10.21875 1.480469 L 12.535156 3.796875 C 12.550781 3.808594 12.570312 3.8125 12.585938 3.808594 C 12.605469 3.800781 12.617188 3.78125 12.617188 3.761719 L 12.617188 2.109375 C 12.617188 1.71875 12.300781 1.402344 11.90625 1.402344 Z M 3.636719 1.496094 L 9.574219 1.496094 L 12.523438 4.445312 L 12.523438 13.355469 C 12.523438 13.695312 12.25 13.96875 11.90625 13.96875 L 3.636719 13.96875 C 3.296875 13.96875 3.023438 13.695312 3.023438 13.355469 L 3.023438 2.109375 C 3.023438 1.769531 3.296875 1.496094 3.636719 1.496094 Z M 10.367188 1.496094 L 11.90625 1.496094 C 12.25 1.496094 12.523438 1.769531 12.523438 2.109375 L 12.523438 3.648438 Z M 10.367188 1.496094 "/>
</g>
</svg>
